modules/hawcons-filled/icons/icon-47-one-finger-swipe-left.svg

<?xml version="1.0" encoding="UTF-8" standalone="no"?>
<svg width="32px" height="32px" viewBox="0 0 32 32" version="1.1" xmlns="http://www.w3.org/2000/svg" xmlns:xlink="http://www.w3.org/1999/xlink" xmlns:sketch="http://www.bohemiancoding.com/sketch/ns">
    <!-- Generator: Sketch 3.0.3 (7891) - http://www.bohemiancoding.com/sketch -->
    <title>icon 47 one finger swipe left</title>
    <desc>Created with Sketch.</desc>
    <defs></defs>
    <g id="Page-1" stroke="none" stroke-width="1" fill="none" fill-rule="evenodd" sketch:type="MSPage">
        <g id="icon-47-one-finger-swipe-left" sketch:type="MSArtboardGroup" fill="#929292">
            <path d="M12.0278925,14 L5.950001,14 L9.200001,10.75 L8.450001,10 L3.950001,14.5 L8.450001,19 L9.200001,18.25 L5.950001,15 L5.950001,15 L12,15 L12,31 L21,31 L21,14.5050269 C21,12.0169692 18.9802243,10 16.5,10 C14.185047,10 12.2783671,11.7470269 12.0278925,14 L12.0278925,14 L12.0278925,14 Z M16.5,12 C15.1192881,12 14,13.1285541 14,14.5097752 L14,18 L19,18 L19,14.5097752 C19,13.1236646 17.8903379,12 16.5,12 L16.5,12 Z M14,21 L14,22 L19,22 L19,21 L14,21 L14,21 Z M14,23 L14,24 L19,24 L19,23 L14,23 L14,23 Z" id="one-finger-swipe-left" sketch:type="MSShapeGroup"></path>
        </g>
    </g>
</svg>

<svg width="32" height="32" xmlns="http://www.w3.org/2000/svg"><path d="M12.028 14H5.95l3.25-3.25-.75-.75-4.5 4.5 4.5 4.5.75-.75L5.95 15H12v16h9V14.505A4.5 4.5 0 1 0 12.028 14zm4.472-2c-1.38 0-2.5 1.129-2.5 2.51V18h5v-3.49c0-1.386-1.11-2.51-2.5-2.51zM14 21v1h5v-1h-5zm0 2v1h5v-1h-5z" fill="#929292" fill-rule="evenodd"/></svg>
